build/category/HomeAutocreditSolid.svg

<svg xmlns="http://www.w3.org/2000/svg" fill="none" viewBox="0 0 24 24" focusable="false"><path d="M0 0H24V24H0z"/><path fill="#74767B" fill-rule="evenodd" d="M21.0003 10.4676L12.9195 2.38687C12.4118 1.87918 11.5887 1.87918 11.081 2.38686L3.00027 10.4676C2.72871 10.7024 2.69891 11.1129 2.93371 11.3844C3.1685 11.656 3.57898 11.6858 3.85053 11.451L12.0003 3.3061C14.0862 5.39205 16.4111 7.71491 18.0885 9.39095C19.0346 10.3362 19.7748 11.0758 20.15 11.451C20.4216 11.6858 20.832 11.656 21.0668 11.3844C21.3016 11.1129 21.2718 10.7024 21.0003 10.4676ZM5.54892 13.253L6.866 10.6414C7.376 9.6301 8.41205 8.99225 9.54464 8.99225L14.4555 8.99225C15.5881 8.99225 16.6242 9.6301 17.1342 10.6414L18.4286 13.208C18.6252 13.4763 18.7784 13.7786 18.8776 14.1043C18.9485 14.3371 18.7598 14.5539 18.5165 14.5539L16.9852 14.5539C16.6262 14.5539 16.3352 14.8449 16.3352 15.2039C16.3352 15.5629 16.6262 15.8539 16.9852 15.8539L18.6073 15.8539C18.8282 15.8539 19.0073 16.033 19.0073 16.2539L19.0073 19.7688C19.0073 20.4488 18.4561 21 17.7761 21C17.0961 21 16.5449 20.4488 16.5449 19.7688L16.5449 18.9929L16.5427 18.9929L15.3799 16.366C14.8994 15.2804 13.8239 14.5803 12.6367 14.5803L11.3806 14.5803C10.1934 14.5803 9.1179 15.2804 8.63735 16.366L7.47515 18.9916L7.47514 19.7637C7.47514 20.4465 6.92164 21 6.23885 21C5.55607 21 5.00256 20.4465 5.00256 19.7637L5.00256 16.2539C5.00256 16.033 5.18165 15.8539 5.40256 15.8539L7.01756 15.8539C7.37655 15.8539 7.66756 15.5629 7.66756 15.2039C7.66756 14.8449 7.37655 14.5539 7.01756 14.5539L5.49338 14.5539C5.25008 14.5539 5.06138 14.337 5.13226 14.1043C5.22596 13.7967 5.36777 13.51 5.54892 13.253ZM16.1807 11.9845C16.1233 11.9813 16.0655 11.9796 16.0073 11.9796L8.00256 11.9796C7.94433 11.9796 7.8865 11.9813 7.82909 11.9845L7.64459 11.9845L8.02674 11.2268C8.31574 10.6537 8.90284 10.2922 9.54464 10.2922L14.4555 10.2922C15.0973 10.2922 15.6844 10.6537 15.9734 11.2268L16.3556 11.9845L16.1807 11.9845ZM12.6367 15.8803L11.3806 15.8803C10.7079 15.8803 10.0984 16.277 9.82608 16.8922L9.18202 18.4391C9.07233 18.7026 9.26591 18.9929 9.5513 18.9929L14.5169 18.9929C14.8071 18.9929 15.0007 18.6936 14.8818 18.4289L14.1912 16.8922C13.9189 16.277 13.3094 15.8803 12.6367 15.8803Z"/></svg>

<svg xmlns="http://www.w3.org/2000/svg" fill="none" viewBox="0 0 24 24" focusable="false"><path fill="#74767B" fill-rule="evenodd" d="M12.91 2.38 21 10.46c.27.24.3.65.06.92-.23.27-.64.3-.92.07-.37-.38-1.11-1.12-2.06-2.06-1.67-1.68-4-4-6.08-6.09l-8.15 8.15c-.28.23-.69.2-.92-.07a.643.643 0 0 1 .07-.92l8.08-8.08c.5-.51 1.33-.51 1.83 0M5.54 13.25l1.32-2.61a3.01 3.01 0 0 1 2.68-1.65h4.91c1.13 0 2.17.64 2.68 1.65l1.29 2.56q.3.405.45.9c.07.23-.12.45-.36.45h-1.53c-.36 0-.65.29-.65.65s.29.65.65.65h1.62c.22 0 .4.18.4.4v3.51c0 .68-.55 1.24-1.23 1.24s-1.23-.56-1.23-1.24v-.77l-1.17-2.63a3 3 0 0 0-2.74-1.78h-1.25c-1.19 0-2.27.7-2.75 1.78l-1.16 2.63v.77c0 .68-.55 1.24-1.24 1.24C5.55 21 5 20.44 5 19.76v-3.51c0-.22.18-.4.4-.4h1.61c.36 0 .65-.29.65-.65s-.29-.65-.65-.65H5.49c-.24 0-.43-.22-.36-.45.09-.31.23-.6.41-.85m10.64-1.27c-.06 0-.12-.01-.18-.01H8c-.06 0-.12.01-.18.01h-.18l.38-.76c.29-.57.88-.93 1.52-.93h4.91c.64 0 1.23.36 1.52.93l.38.76zm-3.55 3.9h-1.25c-.68 0-1.29.39-1.56 1.01l-.64 1.54c-.11.27.08.56.37.56h4.96c.29 0 .49-.3.37-.57l-.69-1.53a1.71 1.71 0 0 0-1.56-1.01"/></svg>
